svgs/duotone/objects-align-left.svg

<svg xmlns="http://www.w3.org/2000/svg" viewBox="0 0 512 512"><!--! Font Awesome Pro 6.4.2 by @fontawesome - https://fontawesome.com License - https://fontawesome.com/license (Commercial License) Copyright 2023 Fonticons, Inc. --><path class="fa-primary" style="fill:var(--fa-primary-color,inherit);opacity:var(--fa-primary-opacity,1);" d="M24 0C10.7 0 0 10.7 0 24L0 488c0 13.3 10.7 24 24 24s24-10.7 24-24L48 24C48 10.7 37.3 0 24 0z"/><path class="fa-secondary" style="fill:var(--fa-secondary-color,inherit);opacity:var(--fa-secondary-opacity,.4);" d="M128 112c0-26.5 21.5-48 48-48l288 0c26.5 0 48 21.5 48 48l0 64c0 26.5-21.5 48-48 48l-288 0c-26.5 0-48-21.5-48-48l0-64zm0 224c0-26.5 21.5-48 48-48l160 0c26.5 0 48 21.5 48 48l0 64c0 26.5-21.5 48-48 48l-160 0c-26.5 0-48-21.5-48-48l0-64z"/></svg>

<svg xmlns="http://www.w3.org/2000/svg" viewBox="0 0 512 512"><!--! Font Awesome Pro 6.1.1 by @fontawesome - https://fontawesome.com License - https://fontawesome.com/license (Commercial License) Copyright 2022 Fonticons, Inc. --><defs><style>.fa-secondary{opacity:.4}</style></defs><path class="fa-primary" d="M48 24V488C48 501.3 37.25 512 24 512C10.75 512 0 501.3 0 488V24C0 10.75 10.75 0 24 0C37.25 0 48 10.75 48 24z"/><path class="fa-secondary" d="M128 112C128 85.49 149.5 64 176 64H464C490.5 64 512 85.49 512 112V176C512 202.5 490.5 224 464 224H176C149.5 224 128 202.5 128 176V112zM128 336C128 309.5 149.5 288 176 288H336C362.5 288 384 309.5 384 336V400C384 426.5 362.5 448 336 448H176C149.5 448 128 426.5 128 400V336z"/></svg>
